X:130
T:Smith's Rant. (p)1657.PLFD.131
T:Cuckoo,The. (p)1657.PLFD.131
T:May Day. (p)1657.PLFD.131
M:C
L:1/8
Q:1/2=70
S:Playford, Dancing Master,3rd Ed.,1657
O:England
H:1657.
Z:Chris Partington.
K:F
F2A>Bc2A2|B>cA>BG2F2|f2e>fg2e2|f>ge>fd2c2:|
|:g2a>ba3(g/f/)|e>fd>e^c2d2|e2d>e f>ga>f|b<ag>fe2f2:|
